src/images/e-moda.svg

<svg width="166" height="39" viewBox="0 0 166 39" fill="none" xmlns="http://www.w3.org/2000/svg">
<path d="M63.684 10.1123C66.7596 10.1123 69.2094 11.1271 71.0333 13.1568C72.893 15.1865 73.8228 17.9049 73.8228 21.3119V38.057H66.9027V21.8012C66.9027 20.1702 66.5093 18.9016 65.7225 17.9955C64.9357 17.0894 63.827 16.6363 62.3965 16.6363C60.8229 16.6363 59.5891 17.1619 58.695 18.213C57.8367 19.2641 57.4075 20.7864 57.4075 22.7798V38.057H50.4874V21.8012C50.4874 20.1702 50.094 18.9016 49.3072 17.9955C48.5204 17.0894 47.4117 16.6363 45.9812 16.6363C44.4434 16.6363 43.2096 17.1619 42.2797 18.213C41.3856 19.2641 40.9386 20.7864 40.9386 22.7798V38.057H34.0184V10.8734H40.9386V13.7549C42.5479 11.3265 45.0335 10.1123 48.3952 10.1123C51.6854 10.1123 54.1173 11.4171 55.6909 14.0267C57.4791 11.4171 60.1434 10.1123 63.684 10.1123Z" fill="black"/>
<path d="M100.407 34.6862C97.6534 37.4408 94.2917 38.8181 90.3219 38.8181C86.3522 38.8181 82.9905 37.4408 80.2367 34.6862C77.5187 31.8954 76.1597 28.4884 76.1597 24.4652C76.1597 20.442 77.5187 17.0531 80.2367 14.2985C82.9905 11.5077 86.3522 10.1123 90.3219 10.1123C94.2917 10.1123 97.6534 11.5077 100.407 14.2985C103.161 17.0531 104.538 20.442 104.538 24.4652C104.538 28.4884 103.161 31.8954 100.407 34.6862ZM85.1184 29.8475C86.5132 31.2611 88.2477 31.9679 90.3219 31.9679C92.3962 31.9679 94.1307 31.2611 95.5255 29.8475C96.9203 28.434 97.6176 26.6399 97.6176 24.4652C97.6176 22.2905 96.9203 20.4964 95.5255 19.0829C94.1307 17.6693 92.3962 16.9625 90.3219 16.9625C88.2477 16.9625 86.5132 17.6693 85.1184 19.0829C83.7594 20.4964 83.0799 22.2905 83.0799 24.4652C83.0799 26.6399 83.7594 28.434 85.1184 29.8475Z" fill="black"/>
<path d="M127.592 0L134.512 0V38.057H127.592V34.8493C125.553 37.4952 122.656 38.8181 118.901 38.8181C115.289 38.8181 112.196 37.4408 109.621 34.6862C107.081 31.8954 105.812 28.4884 105.812 24.4652C105.812 20.442 107.081 17.0531 109.621 14.2985C112.196 11.5077 115.289 10.1123 118.901 10.1123C122.656 10.1123 125.553 11.4352 127.592 14.0811V0ZM114.824 30.0106C116.255 31.4242 118.043 32.131 120.189 32.131C122.334 32.131 124.105 31.4242 125.499 30.0106C126.894 28.5608 127.592 26.7124 127.592 24.4652C127.592 22.218 126.894 20.3877 125.499 18.9741C124.105 17.5243 122.334 16.7994 120.189 16.7994C118.043 16.7994 116.255 17.5243 114.824 18.9741C113.429 20.3877 112.732 22.218 112.732 24.4652C112.732 26.7124 113.429 28.5608 114.824 30.0106Z" fill="black"/>
<path d="M159.08 10.8734L166 10.8734V38.057H159.08V34.8493C157.006 37.4952 154.091 38.8181 150.336 38.8181C146.759 38.8181 143.684 37.4408 141.109 34.6862C138.57 31.8954 137.3 28.4884 137.3 24.4652C137.3 20.442 138.57 17.0531 141.109 14.2985C143.684 11.5077 146.759 10.1123 150.336 10.1123C154.091 10.1123 157.006 11.4352 159.08 14.0811V10.8734ZM146.312 30.0106C147.707 31.4242 149.477 32.131 151.623 32.131C153.769 32.131 155.539 31.4242 156.934 30.0106C158.365 28.5608 159.08 26.7124 159.08 24.4652C159.08 22.218 158.365 20.3877 156.934 18.9741C155.539 17.5243 153.769 16.7994 151.623 16.7994C149.477 16.7994 147.707 17.5243 146.312 18.9741C144.918 20.3877 144.22 22.218 144.22 24.4652C144.22 26.7124 144.918 28.5608 146.312 30.0106Z" fill="black"/>
<path d="M10.1965 30.3179C12.6241 32.8125 15.6054 33.0411 19.1406 31.0039C21.4154 29.693 22.7038 27.9151 23.0059 25.6701L29.3604 25.7359C28.9391 30.4106 26.5151 34.0234 22.0884 36.5743C18.2766 38.7709 14.5683 39.3546 10.9636 38.3255C7.3589 37.2963 4.56918 34.9898 2.59445 31.4059C0.637039 27.8535 0.146155 24.243 1.1218 20.5743C2.08011 16.8742 4.34223 13.9967 7.90814 11.9418C11.2896 9.99316 14.7299 9.58459 18.2289 10.7161C21.7588 11.8298 24.4937 14.1472 26.4338 17.6682C26.8668 18.4541 27.249 19.3315 27.5804 20.3003L10.1965 30.3179ZM7.50598 25.6555L19.2643 18.8796C18.0427 17.4712 16.6774 16.684 15.1684 16.5181C13.6902 16.3345 12.2748 16.6324 10.9222 17.4118C9.32369 18.333 8.23569 19.5191 7.65821 20.9702C7.06341 22.3899 7.01267 23.9517 7.50598 25.6555Z" fill="black"/>
</svg>

<svg xmlns="http://www.w3.org/2000/svg" width="166" height="39" fill="none"><path d="M63.68 10.1c3.08 0 5.53 1.03 7.35 3.06 1.86 2.03 2.8 4.74 2.8 8.15v16.76H66.9V21.8c0-1.63-.4-2.9-1.18-3.8-.78-.9-1.9-1.36-3.32-1.36-1.58 0-2.8.52-3.7 1.57-.86 1.06-1.3 2.6-1.3 4.58v15.28h-6.9V21.8c0-1.63-.4-2.9-1.2-3.8-.78-.9-1.9-1.36-3.32-1.36-1.54 0-2.77.52-3.7 1.57-.9 1.06-1.34 2.6-1.34 4.58v15.28h-6.92v-27.2h6.92v2.9c1.6-2.43 4.1-3.65 7.46-3.65 3.3 0 5.72 1.32 7.3 3.93 1.78-2.6 4.44-3.92 7.98-3.92zM100.4 34.7c-2.75 2.74-6.1 4.12-10.08 4.12-3.97 0-7.33-1.38-10.08-4.13-2.72-2.8-4.08-6.2-4.08-10.23s1.36-7.42 4.08-10.17c2.75-2.8 6.1-4.2 10.08-4.2 3.97 0 7.33 1.4 10.1 4.2 2.74 2.75 4.12 6.14 4.12 10.17 0 4.02-1.38 7.43-4.13 10.22zm-15.28-4.85c1.4 1.4 3.13 2.12 5.2 2.12 2.08 0 3.8-.7 5.2-2.12 1.4-1.42 2.1-3.2 2.1-5.38 0-2.18-.7-3.97-2.1-5.4-1.4-1.4-3.12-2.1-5.2-2.1-2.07 0-3.8.7-5.2 2.1-1.36 1.43-2.04 3.22-2.04 5.4 0 2.17.68 3.96 2.04 5.38zM127.6 0h6.9v38.06h-6.9v-3.2c-2.05 2.64-4.94 3.96-8.7 3.96-3.6 0-6.7-1.38-9.28-4.13-2.54-2.8-3.8-6.2-3.8-10.23s1.26-7.42 3.8-10.17c2.58-2.8 5.67-4.2 9.28-4.2 3.76 0 6.65 1.34 8.7 3.98V0zM114.8 30c1.44 1.42 3.22 2.13 5.37 2.13 2.13 0 3.9-.7 5.3-2.12 1.4-1.44 2.1-3.3 2.1-5.53 0-2.25-.7-4.08-2.1-5.5-1.4-1.45-3.17-2.17-5.3-2.17-2.16 0-3.95.72-5.38 2.17-1.4 1.42-2.1 3.25-2.1 5.5 0 2.24.7 4.1 2.1 5.54zM159.08 10.87H166v27.2h-6.92v-3.22c-2.07 2.65-5 3.97-8.74 3.97-3.58 0-6.66-1.38-9.23-4.13-2.53-2.8-3.8-6.2-3.8-10.23s1.27-7.42 3.8-10.17c2.58-2.8 5.66-4.2 9.24-4.2 3.75 0 6.67 1.34 8.74 3.98v-3.2zM146.3 30c1.4 1.42 3.18 2.13 5.32 2.13 2.15 0 3.92-.7 5.3-2.12 1.45-1.44 2.16-3.3 2.16-5.53 0-2.25-.72-4.08-2.15-5.5-1.4-1.45-3.16-2.17-5.3-2.17-2.15 0-3.92.72-5.32 2.17-1.38 1.42-2.08 3.25-2.08 5.5 0 2.24.7 4.1 2.1 5.54zM10.2 30.32c2.42 2.5 5.4 2.72 8.94.68 2.28-1.3 3.56-3.08 3.87-5.33l6.36.07c-.42 4.67-2.84 8.28-7.27 10.83-3.82 2.2-7.53 2.78-11.14 1.76C7.36 37.3 4.56 35 2.6 31.4.63 27.86.14 24.25 1.1 20.58c.96-3.7 3.22-6.57 6.8-8.63 3.37-1.95 6.8-2.36 10.3-1.22 3.54 1.1 6.27 3.43 8.2 6.95.45.78.83 1.66 1.16 2.63L10.2 30.32zm-2.7-4.66l11.76-6.78c-1.22-1.4-2.58-2.2-4.1-2.36-1.47-.2-2.9.1-4.24.9-1.6.9-2.68 2.1-3.26 3.55-.6 1.42-.65 2.98-.15 4.7z"/></svg>
